color/svg/E055.svg

<svg id="emoji" viewBox="0 0 72 72" xmlns="http://www.w3.org/2000/svg">
  <g id="color">
    <path fill="#61b2e4" d="m58,11H14c-1.6569,0-3,1.3431-3,3v44c0,1.6569,1.3431,3,3,3h44c1.6569,0,3-1.3431,3-3V14c0-1.6569-1.3431-3-3-3Z"/>
    <path fill="#3f3f3f" fill-rule="evenodd" d="m61,46.2467c-7.6472-3.3735-16.1048-5.2467-25-5.2467s-17.3528,1.8732-25,5.2467v11.7533c0,1.6569,1.3431,3,3,3h44c1.6569,0,3-1.3431,3-3v-11.7533Z"/>
    <g>
      <path fill="#fff" fill-rule="evenodd" d="m44,19h-1v3h1c1.1046,0,2,.8954,2,2v15l-17-19h-8v3h2c1.1046,0,2,.8954,2,2v17c0,1.1046-.8954,2-2,2h-1v3h9v-3h-1c-1.1046,0-2-.8954-2-2v-17l13.9564,16.2824c2.39.2278,4.7405.5913,7.0436,1.0827v-18.3651c0-1.1046.8954-2,2-2h1v-3h-8Z"/>
      <path fill="#fff" d="m43,19v-1c-.5523,0-1,.4477-1,1h1Zm0,3h-1c0,.5523.4477,1,1,1v-1Zm3,17l-.7452.6668c.2764.309.7148.4153,1.1021.2673.3873-.1479.6431-.5195.6431-.9341h-1Zm-17-19l.7452-.6668c-.1897-.212-.4607-.3332-.7452-.3332v1Zm-8,0v-1c-.5523,0-1,.4477-1,1h1Zm0,3h-1c0,.5523.4477,1,1,1v-1Zm4,2h-1,1Zm0,17h1-1Zm-3,2v-1c-.5523,0-1,.4477-1,1h1Zm0,3h-1c0,.2652.1054.5196.2929.7071s.4419.2929.7071.2929v-1Zm9,0v1c.5523,0,1-.4477,1-1h-1Zm0-3h1c0-.5523-.4477-1-1-1v1Zm-3-2h1-1Zm0-17l.7593-.6508c-.2724-.3177-.7138-.4323-1.1062-.2871-.3925.1452-.6531.5194-.6531.9379h1Zm13.9564,16.2824l-.7593.6508c.1685.1966.4066.3201.6644.3447l.0949-.9955Zm7.0436,1.0827l-.2087.978c.2952.063.6031-.0107.8377-.2006.2347-.1898.371-.4755.371-.7774h-1Zm3-20.3651v1c.5523,0,1-.4477,1-1h-1Zm0-3h1c0-.5523-.4477-1-1-1v1Zm-9,1h1v-2h-1v2Zm1,2v-3h-2v3h2Zm0-1h-1v2h1v-2Zm3,3c0-1.6569-1.3431-3-3-3v2c.5523,0,1,.4477,1,1h2Zm0,15v-15h-2v15h2Zm-18.7452-18.3332l17,19,1.4904-1.3336-17-19-1.4904,1.3336Zm-.2548.3332h1v-2h-1v2Zm-5,0h5v-2h-5v2Zm-2,0h2v-2h-2v2Zm1,2v-3h-2v3h2Zm1-1h-2v2h2v-2Zm3,3c0-1.6569-1.3431-3-3-3v2c.5523,0,1,.4477,1,1h2Zm0,17v-17h-2v17h2Zm-3,3c1.6569,0,3-1.3431,3-3h-2c0,.5523-.4477,1-1,1v2Zm-1,0h1v-2h-1v2Zm1,2v-3h-2v3h2Zm0-1h-1v2h1v-2Zm7,0h-7v2h7v-2Zm1,0h-1v2h1v-2Zm-1-2v3h2v-3h-2Zm0,1h1v-2h-1v2Zm-3-3c0,1.6569,1.3431,3,3,3v-2c-.5523,0-1-.4477-1-1h-2Zm0-17v17h2v-17h-2Zm15.7156,15.6316l-13.9563-16.2824-1.5186,1.3016,13.9564,16.2824,1.5185-1.3016Zm6.4931.7555c-2.3405-.4993-4.729-.8687-7.1574-1.1002l-.1898,1.991c2.3516.2242,4.6641.5818,6.9298,1.0652l.4174-1.956Zm-1.2087.6129v.3651h2v-.3651h-2Zm0-18v18h2v-18h-2Zm3-3c-1.6569,0-3,1.3431-3,3h2c0-.5523.4477-1,1-1v-2Zm1,0h-1v2h1v-2Zm-1-2v3h2v-3h-2Zm0,1h1v-2h-1v2Zm-7,0h7v-2h-7v2Z"/>
    </g>
  </g>
  <g id="line">
    <path fill="none" stroke="#000" stroke-miterlimit="10" stroke-width="2" d="m58,11H14c-1.6569,0-3,1.3431-3,3v44c0,1.6569,1.3431,3,3,3h44c1.6569,0,3-1.3431,3-3V14c0-1.6569-1.3431-3-3-3Z"/>
    <path fill="none" stroke="#000" stroke-linecap="round" stroke-linejoin="round" stroke-width="2" d="m40,39c-3.8669-4.5114-7.2192-8.4224-12-14v17c0,1.1046.8954,2,2,2h1v3h-9v-3h1c1.1046,0,2-.8954,2-2v-17c0-1.1046-.8954-2-2-2h-2v-3h8l17,19v-15c0-1.1046-.8954-2-2-2h-1v-3h9v3h-1c-1.1046,0-2,.8954-2,2v16"/>
    <path fill="none" stroke="#000" stroke-linecap="round" stroke-width="2" d="m61,46.2467c-7.6472-3.3735-16.1048-5.2467-25-5.2467-1.6832,0-3.3507.0671-5,.1987m-20,5.048c2.8909-1.2753,5.8976-2.3362,9-3.1625"/>
  </g>
</svg>

<svg id="emoji" viewBox="0 0 72 72" xmlns="http://www.w3.org/2000/svg">
  <g id="color">
    <path fill="#61B2E4" d="M58 11H14C12.3431 11 11 12.3431 11 14V58C11 59.6569 12.3431 61 14 61H58C59.6569 61 61 59.6569 61 58V14C61 12.3431 59.6569 11 58 11Z"/>
    <g>
      <path fill="#3F3F3F" fill-rule="evenodd" d="M61 46.2467C53.3528 42.8732 44.8952 41 36 41C27.1048 41 18.6472 42.8732 11 46.2467V58C11 59.6569 12.3431 61 14 61H58C59.6569 61 61 59.6569 61 58V46.2467Z" clip-rule="evenodd"/>
      <path fill="#3F3F3F" d="M61 46.2467H62V45.5949L61.4036 45.3318L61 46.2467ZM11 46.2467L10.5964 45.3318L10 45.5949V46.2467H11ZM36 42C44.7535 42 53.0739 43.8432 60.5964 47.1617L61.4036 45.3318C53.6317 41.9033 45.0368 40 36 40V42ZM11.4036 47.1617C18.9261 43.8432 27.2465 42 36 42V40C26.9632 40 18.3683 41.9033 10.5964 45.3318L11.4036 47.1617ZM10 46.2467V58H12V46.2467H10ZM10 58C10 60.2091 11.7909 62 14 62V60C12.8954 60 12 59.1046 12 58H10ZM14 62H58V60H14V62ZM58 62C60.2091 62 62 60.2091 62 58H60C60 59.1046 59.1046 60 58 60V62ZM62 58V46.2467H60V58H62Z"/>
    </g>
    <g>
      <path fill="#fff" fill-rule="evenodd" d="M44 19H43V22H44C45.1046 22 46 22.8954 46 24V39L29 20H28H23H21V23H23C24.1046 23 25 23.8954 25 25L25 42C25 43.1046 24.1046 44 23 44H22L22 47H23H30H31V44H30C28.8954 44 28 43.1046 28 42L28 25L41.9564 41.2824C44.3464 41.5102 46.6969 41.8737 49 42.3651V42V24C49 22.8954 49.8954 22 51 22H52V19H51H44Z" clip-rule="evenodd"/>
      <path fill="#fff" d="M43 19V18C42.4477 18 42 18.4477 42 19H43ZM43 22H42C42 22.5523 42.4477 23 43 23V22ZM46 39L45.2548 39.6668C45.5312 39.9758 45.9696 40.0821 46.3569 39.9341C46.7442 39.7862 47 39.4146 47 39H46ZM29 20L29.7452 19.3332C29.5555 19.1212 29.2845 19 29 19V20ZM21 20V19C20.4477 19 20 19.4477 20 20H21ZM21 23H20C20 23.5523 20.4477 24 21 24V23ZM25 25H24H25ZM25 42H26H25ZM22 44V43C21.4477 43 21 43.4477 21 44H22ZM22 47H21C21 47.2652 21.1054 47.5196 21.2929 47.7071C21.4804 47.8946 21.7348 48 22 48V47ZM31 47V48C31.5523 48 32 47.5523 32 47H31ZM31 44H32C32 43.4477 31.5523 43 31 43V44ZM28 42H29H28ZM28 25L28.7593 24.3492C28.4869 24.0315 28.0455 23.9169 27.6531 24.0621C27.2606 24.2073 27 24.5815 27 25H28ZM41.9564 41.2824L41.1971 41.9332C41.3656 42.1298 41.6037 42.2533 41.8615 42.2779L41.9564 41.2824ZM49 42.3651L48.7913 43.3431C49.0865 43.4061 49.3944 43.3324 49.629 43.1425C49.8637 42.9527 50 42.667 50 42.3651H49ZM52 22V23C52.5523 23 53 22.5523 53 22H52ZM52 19H53C53 18.4477 52.5523 18 52 18V19ZM43 20H44V18H43V20ZM44 22V19H42V22H44ZM44 21H43V23H44V21ZM47 24C47 22.3431 45.6569 21 44 21V23C44.5523 23 45 23.4477 45 24H47ZM47 39V24H45V39H47ZM28.2548 20.6668L45.2548 39.6668L46.7452 38.3332L29.7452 19.3332L28.2548 20.6668ZM28 21H29V19H28V21ZM23 21H28V19H23V21ZM21 21H23V19H21V21ZM22 23V20H20V23H22ZM23 22H21V24H23V22ZM26 25C26 23.3431 24.6569 22 23 22V24C23.5523 24 24 24.4477 24 25H26ZM26 42L26 25H24L24 42H26ZM23 45C24.6569 45 26 43.6569 26 42H24C24 42.5523 23.5523 43 23 43V45ZM22 45H23V43H22V45ZM23 47L23 44H21L21 47H23ZM23 46H22V48H23V46ZM30 46H23V48H30V46ZM31 46H30V48H31V46ZM30 44V47H32V44H30ZM30 45H31V43H30V45ZM27 42C27 43.6569 28.3431 45 30 45V43C29.4477 43 29 42.5523 29 42H27ZM27 25L27 42H29V25H27ZM42.7156 40.6316L28.7593 24.3492L27.2407 25.6508L41.1971 41.9332L42.7156 40.6316ZM49.2087 41.3871C46.8682 40.8878 44.4797 40.5184 42.0513 40.2869L41.8615 42.2779C44.2131 42.5021 46.5256 42.8597 48.7913 43.3431L49.2087 41.3871ZM48 42V42.3651H50V42H48ZM48 24V42H50V24H48ZM51 21C49.3431 21 48 22.3431 48 24H50C50 23.4477 50.4477 23 51 23V21ZM52 21H51V23H52V21ZM51 19V22H53V19H51ZM51 20H52V18H51V20ZM44 20H51V18H44V20Z"/>
    </g>
  </g>
  <g id="line">
    <path fill="none" stroke="#000" stroke-miterlimit="10" stroke-width="2" d="M58 11H14C12.3431 11 11 12.3431 11 14V58C11 59.6569 12.3431 61 14 61H58C59.6569 61 61 59.6569 61 58V14C61 12.3431 59.6569 11 58 11Z"/>
    <path fill="none" stroke="#000" stroke-linecap="round" stroke-linejoin="round" stroke-width="2" d="M40 39C36.1331 34.4886 32.7808 30.5776 28 25L28 42C28 43.1046 28.8954 44 30 44H31V47H22L22 44H23C24.1046 44 25 43.1046 25 42L25 25C25 23.8954 24.1046 23 23 23H21V20H29L46 39V24C46 22.8954 45.1046 22 44 22H43V19H52V22H51C49.8954 22 49 22.8954 49 24V40"/>
    <path fill="none" stroke="#000" stroke-linecap="round" stroke-width="2" d="M61 46.2467C53.3528 42.8732 44.8952 41 36 41C34.3168 41 32.6493 41.0671 31 41.1987M11 46.2467C13.8909 44.9714 16.8976 43.9105 20 43.0842"/>
  </g>
</svg>
